images/professionalnoe-oborudovanie.svg

<svg width="60" height="80" viewBox="0 0 60 80" fill="none" xmlns="http://www.w3.org/2000/svg">
<path d="M30.4631 68C29.113 68 27.7881 67.6349 26.6286 66.9434C25.6085 66.3332 24.3334 65.6046 22.9216 64.7939C16.6917 61.1872 8.07555 56.2142 5.91695 53.081C4.03159 50.3122 3.68548 40.9218 3.40313 27.9793C3.31205 23.7805 3.23008 19.8367 3.0297 17.1134C2.95648 16.6102 3.01922 16.0965 3.2114 15.6257C3.40358 15.1548 3.71821 14.744 4.12267 14.4357C4.56142 14.1769 5.06148 14.0405 5.57084 14.0405C6.08021 14.0405 6.58027 14.1769 7.01902 14.4357C11.6823 16.7036 15.1161 17.9605 16.6917 17.9605C18.2674 17.9605 22.5664 16.2937 28.1496 13.5067C28.8343 13.1659 29.59 12.9923 30.3547 13.0003C31.1194 13.0082 31.8714 13.1973 32.5488 13.5522C37.7859 16.3119 41.7388 17.9605 43.105 17.9605C44.708 17.9605 48.415 16.6854 53.5428 14.3173C53.9677 14.1074 54.4411 14.0153 54.9136 14.0506C55.3862 14.0858 55.8406 14.2471 56.2297 14.5176C56.7484 14.9316 57.1534 15.4705 57.4067 16.0839C57.66 16.6972 57.7533 17.3649 57.6779 18.0242C57.4775 20.7566 57.3955 24.6276 57.3044 28.6897C57.0312 41.2224 56.6851 50.3031 54.7906 53.081C52.4134 56.5603 42.1942 62.5898 34.0608 67.0801C32.9588 67.6866 31.7209 68.0031 30.4631 68ZM5.47066 15.8565C5.35423 15.8492 5.23873 15.8813 5.14277 15.9476C5.01416 16.0844 4.92051 16.2503 4.86976 16.431C4.81902 16.6118 4.81269 16.8022 4.85131 16.9859C5.05169 19.7183 5.13366 23.7168 5.22474 27.9156C5.42512 37.0236 5.69836 49.5107 7.42888 52.0518C9.34157 54.8662 18.0671 59.8847 23.8233 63.2C25.2442 64.0198 26.5557 64.7575 27.5485 65.3678C28.3968 65.8724 29.3616 66.1478 30.3484 66.167C31.3352 66.1861 32.3101 65.9484 33.1773 65.4771C44.2891 59.3929 51.6119 54.5019 53.2787 52.0609C54.9455 49.62 55.2825 37.9435 55.4828 28.6442C55.5739 24.5638 55.665 20.7111 55.8563 17.8967C55.897 17.5614 55.8571 17.2211 55.7399 16.9043C55.6227 16.5875 55.4315 16.3032 55.1823 16.0751C55.0479 15.9839 54.8893 15.9351 54.7269 15.9351C54.5645 15.9351 54.4058 15.9839 54.2715 16.0751C48.7793 18.5161 45.0177 19.7821 43.105 19.7821C40.9282 19.7821 35.7002 17.2683 31.7018 15.1643C31.2785 14.9491 30.8104 14.837 30.3356 14.837C29.8607 14.837 29.3926 14.9491 28.9694 15.1643C24.725 17.2592 19.1509 19.7821 16.6917 19.7821C14.7882 19.7821 11.2269 18.5343 6.21751 16.066C5.98727 15.9414 5.7321 15.8699 5.47066 15.8565Z" fill="#C29F5B"/>
<path d="M30.4631 62.5897C30.0983 62.5746 29.745 62.4579 29.443 62.2527C28.3956 61.6333 27.0932 60.8865 25.6541 60.0576C19.1692 56.3233 12.3108 52.2338 10.5985 50.2027C10.535 50.1223 10.4829 50.0334 10.4437 49.9386C9.40538 47.106 9.06838 37.0872 8.86801 27.8425V27.4691C8.86801 25.7932 8.79514 24.1538 8.7496 22.6145C8.74687 22.4646 8.78118 22.3164 8.8495 22.1829C8.91783 22.0494 9.01804 21.9349 9.14125 21.8495C9.26459 21.7634 9.40733 21.7092 9.55672 21.6917C9.70612 21.6742 9.85752 21.694 9.9974 21.7493C13.7408 23.2339 15.5442 23.4251 16.6918 23.4251C17.8394 23.4251 20.3897 23.4251 29.8802 18.7436C30.0099 18.6827 30.1514 18.6511 30.2946 18.6511C30.4379 18.6511 30.5794 18.6827 30.7091 18.7436C39.6896 23.4251 41.9939 23.4251 43.1051 23.4251C44.2163 23.4251 46.2929 23.2066 50.7649 21.4669C50.9055 21.4129 51.0574 21.3946 51.2068 21.4137C51.3562 21.4328 51.4985 21.4886 51.6211 21.5762C51.7439 21.6635 51.8432 21.78 51.9099 21.9151C51.9767 22.0502 52.0089 22.1998 52.0036 22.3504C51.9399 24.254 51.8943 26.3215 51.8488 28.4528V28.5621C51.6575 37.497 51.3569 47.2335 50.2913 49.9386C50.2532 50.0283 50.2009 50.1114 50.1365 50.1845C48.7703 51.8331 43.1415 55.8679 31.4377 62.2891C31.1446 62.4724 30.8086 62.576 30.4631 62.5897ZM12.0831 49.1462C14.0596 51.2866 23.0674 56.4873 26.5467 58.4728C28.004 59.3108 29.2791 60.0576 30.3629 60.6952C30.3917 60.7129 30.4248 60.7223 30.4586 60.7223C30.4924 60.7223 30.5255 60.7129 30.5542 60.6952C42.4857 54.1556 47.4678 50.4122 48.6336 49.128C49.6264 46.2408 49.8906 34.3183 50.0181 28.5348V28.4163C50.0181 26.7769 50.0909 25.1739 50.1274 23.6437C46.2565 25.0555 44.3529 25.2468 43.1051 25.2468C41.8573 25.2468 39.3161 25.2468 30.281 20.5834C20.7358 25.2468 18.0125 25.2468 16.6918 25.2468C14.5977 25.1779 12.5333 24.7304 10.5985 23.9261C10.5985 25.0555 10.6532 26.2304 10.6805 27.4327V27.8061C10.8171 33.7901 11.0904 46.1224 12.0831 49.1462Z" fill="#C29F5B"/>
<path d="M22.1565 49.8389H22.029C21.9019 49.8202 21.7802 49.7748 21.6719 49.7057C21.5636 49.6367 21.4711 49.5455 21.4006 49.4381L15.9358 41.2409C15.8563 41.1422 15.7982 41.028 15.7654 40.9056C15.7325 40.7832 15.7256 40.6553 15.745 40.5301C15.7644 40.4048 15.8097 40.285 15.8781 40.1783C15.9465 40.0716 16.0363 39.9803 16.142 39.9103C16.2476 39.8403 16.3667 39.7931 16.4916 39.7718C16.6165 39.7504 16.7445 39.7554 16.8674 39.7863C16.9903 39.8172 17.1054 39.8735 17.2053 39.9514C17.3052 40.0294 17.3878 40.1273 17.4477 40.239L22.3478 47.5892L44.3437 29.0999C44.4358 29.0234 44.5421 28.9657 44.6565 28.9302C44.7708 28.8947 44.8911 28.8821 45.0103 28.8931C45.1296 28.9041 45.2455 28.9385 45.3515 28.9943C45.4574 29.0501 45.5514 29.1262 45.6279 29.2183C45.7045 29.3104 45.7621 29.4167 45.7976 29.5311C45.8331 29.6454 45.8457 29.7657 45.8347 29.8849C45.8237 30.0042 45.7893 30.1201 45.7335 30.2261C45.6777 30.3321 45.6016 30.426 45.5095 30.5025L22.7395 49.6294C22.5756 49.7652 22.3694 49.8393 22.1565 49.8389Z" fill="#C29F5B"/>
</svg>

<svg width="60" height="80" fill="none" xmlns="http://www.w3.org/2000/svg"><path d="M30.463 68a7.486 7.486 0 01-3.834-1.057c-1.02-.61-2.296-1.338-3.707-2.15-6.23-3.606-14.846-8.579-17.005-11.712-1.885-2.769-2.232-12.16-2.514-25.102-.09-4.198-.173-8.142-.373-10.866a2.85 2.85 0 011.093-2.677 2.85 2.85 0 012.896 0c4.663 2.268 8.097 3.524 9.673 3.524 1.575 0 5.874-1.666 11.458-4.453a4.835 4.835 0 014.399.045c5.237 2.76 9.19 4.409 10.556 4.409 1.603 0 5.31-1.276 10.438-3.644a2.65 2.65 0 012.687.2 3.917 3.917 0 011.448 3.507c-.2 2.733-.282 6.604-.374 10.666-.273 12.532-.619 21.613-2.513 24.391-2.378 3.48-12.597 9.509-20.73 14a7.423 7.423 0 01-3.598.919zM5.471 15.856a.52.52 0 00-.328.092 1.166 1.166 0 00-.292 1.038c.2 2.732.283 6.73.374 10.93.2 9.108.473 21.595 2.204 24.136 1.913 2.814 10.638 7.833 16.394 11.148 1.421.82 2.733 1.557 3.726 2.168a5.693 5.693 0 005.628.11C44.29 59.392 51.612 54.501 53.28 52.06c1.666-2.441 2.003-14.117 2.204-23.417.09-4.08.182-7.933.373-10.747a2.123 2.123 0 00-.674-1.822.811.811 0 00-.91 0c-5.493 2.441-9.254 3.707-11.167 3.707-2.177 0-7.405-2.514-11.403-4.618a3.015 3.015 0 00-2.733 0c-4.244 2.095-9.818 4.618-12.277 4.618-1.904 0-5.465-1.248-10.474-3.716a1.758 1.758 0 00-.747-.21z" fill="#C29F5B"/><path d="M30.463 62.59a1.96 1.96 0 01-1.02-.337c-1.047-.62-2.35-1.367-3.789-2.195-6.485-3.735-13.343-7.824-15.056-9.855a1.111 1.111 0 01-.154-.264c-1.039-2.833-1.376-12.852-1.576-22.096v-.374c0-1.676-.073-3.315-.118-4.855a.91.91 0 011.247-.865c3.744 1.485 5.547 1.676 6.695 1.676 1.147 0 3.698 0 13.188-4.681a.975.975 0 01.83 0c8.98 4.681 11.284 4.681 12.395 4.681 1.111 0 3.188-.218 7.66-1.958a.91.91 0 011.239.883c-.064 1.904-.11 3.971-.155 6.103v.11c-.191 8.934-.492 18.67-1.558 21.376a.91.91 0 01-.154.245c-1.367 1.65-6.995 5.684-18.7 12.105a1.975 1.975 0 01-.974.3zm-18.38-13.444c1.977 2.14 10.984 7.341 14.464 9.327a437.37 437.37 0 013.816 2.222.183.183 0 00.191 0c11.932-6.54 16.914-10.283 18.08-11.567.992-2.887 1.257-14.81 1.384-20.593v-.119c0-1.64.073-3.242.11-4.772-3.871 1.412-5.775 1.603-7.023 1.603-1.248 0-3.789 0-12.824-4.664-9.545 4.664-12.268 4.664-13.59 4.664a17.361 17.361 0 01-6.092-1.32c0 1.128.054 2.303.082 3.506v.373c.136 5.984.41 18.316 1.402 21.34z" fill="#C29F5B"/><path d="M22.157 49.839h-.128a.91.91 0 01-.628-.4l-5.465-8.198a.91.91 0 111.512-1.002l4.9 7.35L44.344 29.1a.913.913 0 011.39 1.127.91.91 0 01-.224.277L22.74 49.629a.91.91 0 01-.583.21z" fill="#C29F5B"/></svg>
